!!!!SEGMENT: pl-wtm--r-2541--001_hertz-michal--komandor-no-1.krn
!!!cenid: 18xx:3100
!!!COM: Hertz, Michał
!!!COM-rismID: pe41023359
!!!CDT: 1844/09/28-~1918
!!!CNT: Polish
!!!OPR: Komandor
!!!OTL: No. 1
!!!OMV: 001
!!!PDT:
!!!AGN:
!!!SMS-siglum: PL-Wtm
!!!SMS-shelfmark: R 2541
!!!SMS-shelfwork: 001-001 M
!!!SMS-variant:
!!!SMS-altvar:
!!!NIFC-rismSourceID: 1001082458
!!!NIFC-rismChildID: 1001082458
!!!NIFC-islandoraID:
!!!URL-pdf-islandora:
!!!URL-scan:
!!!IIIF:
!!!ONB-nifc:
!!!AIN: 1 bass 1 soprn
!!!key: D-
!!!OMD: All. mod.
**kern	**kern	**text	**dynam
*group1	*group1	*	*
*part2	*part1	*part1	*part1
*staff2	*staff1	*staff1	*
*I"[Basso]	*I"[Soprano]	*	*
*Ibass	*Isoprn	*	*
*ICvox	*ICvox	*	*
*clefF4	*clefG2	*	*
*k[b-e-a-d-g-]	*k[b-e-a-d-g-]	*	*
*D-:	*D-:	*	*
*M3/4	*M3/4	*	*
=1	=1	=1	=1
*^	*^	*	*
!LO:TX:t=P:problem=all\right&colon; global	!LO:TX:t=P:problem=all\right&colon; global	!LO:TX:t=P:problem=all\right&colon; global	!LO:TX:t=P:problem=all\right&colon; global	!	!
8.D-/	8.D-\	8.dd-/	8.dd-\	Broń	f
16AA-/	16AA-\	16a-/	16a-\	mu-	.
4..FF/	4..FF\	4..f/	4..f\	-la-	.
16AA-/	16AA-\	16a-/	16a-\	-rze	.
=2	=2	=2	=2	=2	=2
8.D-/	8.D-\	8.dd-/	8.dd-\	na-	.
16E-/	16E-\	16ee-/	16ee-\	-bi-	.
4F/	4F\	4ff/	4ff\	-jaj-	.
4D-/	4D-\	4dd-/	4dd-\	-cie	.
=3	=3	=3	=3	=3	=3
8.A-/	8.G-\	8.ee-/	8.cc\	I	.
!	!LO:TX:t=P:problem=16\left	!	!	!	!
16A-/	16F\	16ff/	16cc\	do	.
4..A-/	4..E-\	4..gg-/	4..cc\	gó-	.
16A-/	16G-\	16ee-/	16cc\	-ry	.
=4	=4	=4	=4	=4	=4
4A-/	4F\	4aa-/	4dd-\	wznieś-	.
!	!LO:TX:t=P:4\left:problem	!	!	!	!
4A-/	4D-\	4ff/	4dd-\	-cie	.
4r	4ryy	4r	4ryy	.	.
=5	=5	=5	=5	=5	=5
8.D-/	8.D-\	8.dd-/	8.dd-\	Na	.
!	!LO:TX:t=P:problem=16\left	!	!LO:TX:t=P:problem=16\left	!	!
16AA-/	16AA-\	16a-/	16a-\	sióstr	.
4..FF/	4..FF\	4..f/	4..f\	zdro-	.
!	!LO:TX:t=P:problem=16\left	!	!LO:TX:t=P:problem=16\left	!	!
16AA-/	16AA-\	16a-/	16a-\	-wie	.
!!LO:LB:g=original
=6	=6	=6	=6	=6	=6
!	!LO:TX:t=P:problem=all\left&colon; global	!	!LO:TX:t=P:problem=all\left&colon; global	!	!
8.D-/	8.D-\	8.dd-/	8.dd-\	wy-	.
16E-/	16E-\	16ee-/	16ee-\	-strze-	.
!	!LO:TX:t=P:problem=all\middle&colon; global	!	!LO:TX:t=P:problem=all\middle&colon; global	!	!
4F/	4F\	4ff/	4ff\	-laj-	.
4D-/	4D-\	4dd-/	4dd-\	-cie	.
=7	=7	=7	=7	=7	=7
!	!LO:TX:t=P:problem=8\right	!	!LO:TX:t=P:problem=all\left&colon; global	!	!
8.B-/ 8.G-	8.G-\	8.ee-/	8.dd-\	ich	.
!	!LO:TX:t=P:problem=all\left&colon; global	!	!	!	!
16B-/	16F\	16ff/	16ddn\	po-	.
!	!LO:TX:t=P:problem=4\middle	!	!	!	!
4..B-/	4..E-\	4..gg-/	4..ee-\	-chwa-	.
16G-/	16AA-\	16cc/	16a-\	-ły	.
=8	=8	=8	=8	=8	=8
!	!LO:TX:t=P:problem=all\middle&colon; global	!	!LO:TX:t=P:problem=all\middle&colon; global	!	!
4G-/	4C\	4ee-/	4a-\	gło-	.
!	!	!LO:TX:a:t=Un poco Meno e dolce	!	!	!
4F/	4D-\	4dd-/	4a-\	-ście.	.
4r	4ryy	4r	4ryy	.	.
=9	=9	=9	=9	=9	=9
!	!LO:TX:t=P:problem=all\left&colon; global	!	!	!	!LO:DY:b
8.E-/	8.AA-\	8.cc/	8.a-\	Czu-	p
16E-/	16AA-\	16dd-/	16b-\	-łe	.
!	!LO:TX:t=P:problem=4\middle	!	!LO:TX:t=P:problem=4\middle	!	!
4..E-/	4..AA-\	4..ee-/	4..cc\	sio-	.
16E-/	16AA-\	16ff/	16dd-\	-stry	.
=10	=10	=10	=10	=10	=10
8.E-/	8.EE-\	8.ee-/	8.cc\	peł-	.
16E-/	16FF\	16ddn/	16bn\	-ne	.
!	!LO:TX:t=P:4\left:problem	!	!	!	!
4E-/	4GGn\	4dd-X/	4b-X\	chwa-	.
!	!LO:TX:t=P:problem=4\middle	!	!LO:TX:t=P:4\left:problem	!	!
4E-/	4AA-\	4cc/	4a-\	-ły	.
!!LO:LB:g=original
=11	=11	=11	=11	=11	=11
!	!LO:TX:t=P:problem=all\middle&colon; global	!	!LO:TX:t=P:problem=all\middle&colon; global	!	!
4F/	(<8.D-\L	(>8.b-/L	(<8.f\L	wspa-	.
.	16C\Jk)	16cc/Jk)	16an\Jk)	.	.
4F/	(<8BB-\L	(>8dd-/L	(<8b-\L	-nia-	.
.	8AAn\J)	8ff/J)	8cc\J)	.	.
!	!	!LO:TX:t=P:problem=nad pięciolinią zapisane inne akordy	!	!	!
8F/	8BB-\	8dd-/	8b-\	-łe,	.
16r	16ryy	16r	16r	.	.
16F/	16D-\	16b-/	16f\	a	.
=12	=12	=12	=12	=12	=12
!	!LO:TX:t=P:problem=all\right&colon; global	!	!LO:TX:t=P:4\right:problem	!	!
4E-/	4BB-\	4dd-/	4gn\	ho-	.
4E-/ 4AA-	4AA-\	4cc/	4a-\	-że	.
!	!	!LO:TX:a:t=ancora piu meno	!	!	!
4r	4ryy	4r	4ryy	.	.
=13	=13	=13	=13	=13	=13
!	!	!	!	!	!LO:DY:b:rj
8.En/	8.GGn\	8.cc/	8.b-\	Wa-	f
16C/	16GG\	16een/	16b-\	-sze	.
4..C/	4..EEn\	4..ggn/	4..b-\	cno-	.
16E/	16GG\	16cc/	16b-\	-ty	.
=14	=14	=14	=14	=14	=14
!	!LO:TX:b:t=X	!	!	!	!
8.C/	8.AA-\	8.cc/	8.f\	i	.
16F/	16AA-\	16ff/	16cc\	przy-	.
4..F/	4..FF\	4..aa-/	4..cc\	-mio-	.
16F/	16AA-\	16cc/	16f\	-ty	.
=15	=15	=15	=15	=15	=15
!	!LO:TX:t=P:problem=all\left&colon; global	!	!LO:TX:t=P:problem=8\left	!	!
8.F/	8.BB-\ 8.F	8.dd-/	8.f\	Któż	.
16F/	16D-\ 16F	16b-/	16f\	wy-	.
!	!	!	!LO:TX:t=P:problem=all\left&colon; global	!	!
4..D-/	4..EE-\	4..ff/	4..gn\	-li-	.
16D-/	16EE-\	16ee-/	16g\	-czyć	.
=16	=16	=16	=16	=16	=16
!	!LO:TX:t=P:problem=all\right&colon; global	!	!	!	!
4C/	4AA-\	4ee-/	4a-\	mo-	.
!	!	!	!	!LO:MO:P=-że	!
4E-/	4AA-\	4cc/	4a-\	-ze	.
4ryy	4ryy	4r	4ryy	.	.
!!LO:LB:g=original
=17	=17	=17	=17	=17	=17
!	!LO:TX:t=P:problem=8\right	!LO:TX:a:t=ancora piu meno	!LO:TX:t=P:problem=8\right	!	!
8.En/	8.GGn\	8.cc/	8.b-\	Wa-	.
!	!LO:TX:t=P:problem=16\left	!	!LO:TX:t=P:problem=all\middle&colon; global	!	!
16C/	16GG\	16een/	16b-\	-sze	.
!	!LO:TX:t=P:4\right:problem	!	!	!	!
4..C/	4..EEn\	4..ggn/	4..b-\	cno-	.
!	!LO:TX:t=P:problem=16\left	!	!	!	!
16E/	16GG\	16cc/	16b-\	-ty	.
=18	=18	=18	=18	=18	=18
!	!LO:TX:t=P:problem=all\middle&colon; global	!	!LO:TX:t=P:problem=all\left&colon; global	!	!
8.C/	8.AA-\	8.cc/	8.f\	i	.
16F/	16AA-\	16ff/	16cc\	przy-	.
!	!	!	!LO:TX:t=P:problem=4\middle	!	!
4..F/	4..FF\	4..aa-/	4..cc\	-mio-	.
16F/	16AA-\	16cc/	16f\	-ty	.
=19	=19	=19	=19	=19	=19
!	!	!	!LO:TX:t=P:problem=all\middle&colon; global	!	!
8.F/	8.BB-\	8.dd-/	8.f\	Któż	.
16F/	16D-\	16b-/	16f\	wy-	.
!LO:TX:a:t=ral	!	!	!	!	!
4..D-/	4..GGn;<\	(>4.ff;>/	4..b-\	-li-	.
.	.	16ff-X/)	.	.	.
!	!	!	!LO:TX:t=P:problem=16\left	!	!
16D-/	16EE-\	16ee-/	16gn\	-czyć	.
=20	=20	=20	=20	=20	=20
4C/	4AA-\	4ee-/	4g-X\	mo-	.
4E-/	4C\	4a-/	4g-\	-że?	.
4r	4ryy	4r	4ryy	.	.
=21	=21	=21	=21	=21	=21
!	!	!LO:TX:a:B:t=Tempo.1°	!	!	!LO:DY:b:rj
8.D-/	8.D-\	8.dd-/	8.dd-\	Da-	f
16AA-/	16AA-\	16a-/	16a-\	-lej	.
!	!LO:TX:t=P:4\right:problem	!	!LO:TX:t=P:4\right:problem	!	!
4..FF/	4..FF\	4..f/	4..f\	lam-	.
16AA-/	16AA-\	16a-/	16a-\	-py	.
=22	=22	=22	=22	=22	=22
8.D-/	8.D-\	8.dd-/	8.dd-\	na-	.
16E-/	16E-\	16ee-/	16ee-\	-bi-	.
!	!LO:TX:t=P:problem=4\right&colon; global	!	!	!	!
4F/	4F\	4ff/	4ff\	-jaj-	.
4D-/	4D-\	4dd-/	4dd-\	-cie	.
!!LO:LB:g=original
=23	=23	=23	=23	=23	=23
!	!LO:TX:t=P:problem=all\middle&colon; global	!	!	!	!
8.A-/	8.G-\	8.ee-/ 8.cc	8.cc\	I	.
16A-/	16F\	16ff/	16cc\	do	.
4..A-/	4..E-\	4..gg-/	4..cc\	gó-	.
16A-/	16G-\	16ee-/	16cc\	-ry	.
=24	=24	=24	=24	=24	=24
4A-/	4F\	4aa-/ 4dd-	4dd-\	wznieś-	.
4A-/	4D-\	4ff/	4dd-\ 4ff	-cie.	.
4r	4ryy	4r	4ryy	.	.
=25	=25	=25	=25	=25	=25
!	!	!LO:TX:a:t=rite-nu-to.:dur=4q:ext=ud:problem=text with extention lines	!	!	!
8.D-/	8.D-\	8.dd-/	8.dd-\	Na	.
16AA-/	16AA-\	16a-/	16a-\	sióstr	.
!	!LO:TX:t=P:4\right:problem	!	!	!	!
4..FF/	4..FF\	4..f/	4..f\	zdro-	.
16AA-/	16AA-\	16a-/	16a-\	-wie	.
=26	=26	=26	=26	=26	=26
8.D-/	8.D-\	8.dd-/	8.dd-\	wy-	.
16E-/	16E-\	16ee-/	16ee-\	-chy-	.
4F/	4F\	4ff/	4ff\	-laj-	.
4D-/	4D-\	4dd-/	4dd-\	-cie	.
=27	=27	=27	=27	=27	=27
!	!	!	!LO:TX:t=P:problem=8\right	!	!
8.B-/ 8.G-	8.G-\	8.ee-/	8.dd-\	Ich	.
!	!LO:TX:t=P:problem=16\left	!	!	!	!
16G-/	16E-\ 16G-	16bb-/	16dd-\	po-	.
4..G-/	4..AA-;<\ 4..G-	4..aa-;>/	4..cc\	-chwa-	.
!LO:TX:b:i:t=ritenuto.	!LO:TX:t=P:problem=16\left	!	!LO:TX:t=P:problem=16\left	!	!
16G-/	16AA-\ 16G-	16cc/	16a-\	-ły	.
=28	=28	=28	=28	=28	=28
!	!	!	!LO:TX:t=P:4\left:problem	!	!
4G-/	4AA-\	4ee-/	4cc\ 4ee-	gło-	.
4F/	4D-\	4dd-/	4dd-\	-ście!	.
4r	4ryy	4r	4ryy	.	.
*v	*v	*	*	*	*
*	*v	*v	*	*
==	==	==	==
*-	*-	*-	*-
!!!system-decoration: [(g1)]
!!!RDF**kern: > = above
!!!RDF**kern: < = below
!!!ENC: Anastazja Marusiak
!!!END: 2021-11-01
!!!EED: Jędrzej Mróz
!!!ESR: 2021-11-04
!!!YEC: Copyright 2022 Narodowy Instytut Fryderyka Chopina (https://polishscores.org)
!!!YEM: License CC-BY-4.0 (https://creativecommons.org/licenses/by/4.0)
